X: 1
T: Warbling
R: reel
M: 4/4
L: 1/8
K: Amin
Aeed e2 A2|Aage dcBG|Aeed e2 Ac|BAG z GEGB|
Aeed e2 A2|Aage dcBG|Aeed e2 Ac|1 BAG z GEGB:|2 BAG z GEGA||
K:G
BdBA Bg d2|dbge dBGA|BeBG Af d2|dgfd cBAG|FAde ce B2|BdBG ABAG|
[1 EGBd AB G2|GdBd AEGA:|2 EGBd AB E2|EAAG ADEG||

